X:2
T:Polska fran Medelpad (Senpolska f. Torp)
R:polska J
Z:2001 Brian Wilson 
M:3/4
Q:1/4=100
K:D
P:A
|: "D"A,2 DE FG | "G"Bc/B/ "D"AD FA | "D"de/d/ "A"cA ce | "A"ef/e/ "D"dAFD
|  "D"A,2 DE FG | "G"Bc/B/ "D"AD FA | "D"de/d/ "A"cA ce | "A"ef/e/ "D"d4:|
P:B
|: "D"f2 fe/f/ "G"gf | "D"fe "A"ed ee | "A"a2 a^g/a/ ba | "G"gf "D"fa d'a
|  "D"f2 fe/f/ "Em"gf | "Em"fe ed cB | "G"Bc/B/ "A"AA GG | "A"EF/E/ "D"D4:|
